!!!OTL: Yongjunaimin naolianhuan
!!!ARE: Asia, China,ÿJiangxi Ganzhou
!! IV, 196
!!!SCT: C1957
!!!YEM: Copyright 1995, estate of Helmut Schaffrath.
**kern
*ICvox
*Ivox
*M2/4
*k[f#c#]
*D:
{8f#
8f#
16f#
16a
16b
16dd
=1
2a}
=2
{16f#
16a
16b
16dd
8a
8f#
=3
8e
16e
16d
4e}
=4
{8f#
4a
16f#
16a
=5
16b
16a
16b
16dd
4a
=6
8f#
8e
8a
16f#
16e
=7
2d}
=8
{8f#
16f#
16a
16e
16d
16e
16f#
=9
2a}
=10
{8e
8d
8e
8a
=11
4f#
16f#
16a
16f#
16e
=12
2d}
=13
{8f#
16e
16f#
8a
8d
=14
4e
16f#
16a
16e
16f#
=15
2a}
=16
{8e
8d
8e
8a
=17
4f#
16e
16a
16f#
16e
=18
2d}
==
!!!AGN: Xiaodiao, Dengge. Xiaobainian
!!!AMT: simple duple
!!!AIN: vox
!!!EED: Helmut Schaffrath
!!!EEV: 1.0
*-
